packages/foundations/assets/icons/functional/images/business & payment/generic_card.svg

<svg xmlns="http://www.w3.org/2000/svg" width="32" height="32" fill="none"><path fill="#1A1C1F" fill-rule="evenodd" d="M4.22 6.111c-.677.182-1.359.683-1.747 1.285a4 4 0 0 0-.325.693L2 8.507v7.466c0 7.093.005 7.483.098 7.784a3.15 3.15 0 0 0 2.145 2.145c.303.094.81.098 11.757.098s11.454-.004 11.757-.098a3.15 3.15 0 0 0 2.145-2.145c.093-.301.098-.69.098-7.757 0-8.283.028-7.631-.359-8.397-.208-.412-.813-1.016-1.245-1.243-.683-.358.23-.334-12.421-.33-9.828.003-11.509.015-11.755.081m23.128 1.972c.263.11.432.272.551.53.089.192.099.372.1 1.8L28 12H4v-1.575c0-1.301.014-1.609.083-1.773a.98.98 0 0 1 .53-.551c.206-.095.638-.099 11.375-.1 9.956-.001 11.183.008 11.36.082M28 18.602v4.575l-.12.235a1.4 1.4 0 0 1-.325.398l-.205.163-11.315.014c-10.694.013-11.325.008-11.5-.08a1.2 1.2 0 0 1-.347-.325l-.161-.231-.015-4.662-.014-4.662H28z"/></svg>

<svg width="32" height="32" viewBox="0 0 32 32" fill="none" xmlns="http://www.w3.org/2000/svg"><path d="M4.220 6.111 C 3.543 6.293,2.861 6.794,2.473 7.396 C 2.375 7.548,2.229 7.860,2.148 8.089 L 2.000 8.507 2.000 15.973 C 2.000 23.066,2.005 23.456,2.098 23.757 C 2.425 24.817,3.183 25.575,4.243 25.902 C 4.546 25.996,5.053 26.000,16.000 26.000 C 26.947 26.000,27.454 25.996,27.757 25.902 C 28.817 25.575,29.575 24.817,29.902 23.757 C 29.995 23.456,30.000 23.067,30.000 16.000 C 30.000 7.717,30.028 8.369,29.641 7.603 C 29.433 7.191,28.828 6.587,28.396 6.360 C 27.713 6.002,28.626 6.026,15.975 6.030 C 6.147 6.033,4.466 6.045,4.220 6.111 M27.348 8.083 C 27.611 8.193,27.780 8.355,27.899 8.613 C 27.988 8.805,27.998 8.985,27.999 10.413 L 28.000 12.000 16.000 12.000 L 4.000 12.000 4.000 10.425 C 4.000 9.124,4.014 8.816,4.083 8.652 C 4.193 8.389,4.355 8.220,4.613 8.101 C 4.819 8.006,5.251 8.002,15.988 8.001 C 25.944 8.000,27.171 8.009,27.348 8.083 M28.000 18.602 L 28.000 23.177 27.880 23.412 C 27.814 23.541,27.668 23.721,27.555 23.810 L 27.350 23.973 16.035 23.987 C 5.341 24.000,4.710 23.995,4.535 23.907 C 4.433 23.855,4.277 23.709,4.188 23.582 L 4.027 23.351 4.012 18.689 L 3.998 14.027 15.999 14.027 L 28.000 14.027 28.000 18.602 " fill="#1A1C1F" stroke="none" fill-rule="evenodd"></path></svg>
